X:4876
T:Es steht ein Lind...
R:
O:
S:source
B:Frau Nachtigall (Straßburg - 1928)
Z:<anamnese@caramail.com> -- http://anamnese.fr.st
N:vérifier signature
N:p.70
M:C
L:1/4
Q:1/4=150
K:A
E | "A"AA"D"AB | "E"G>F E"F#m"A | "C#m"GE"A"F"B7"F | "E"E2 zE | "A"AA "C#mx"c>"Bx"d | "A"c2"E7"B2 | 
"F#"(A/B/c/B/ A "B7"G/F/ | G>F) EE | "D" FGAB | c>B AE |\
 "D"F"Bm"G"F#m"A"E"B | c3B | "A" A2 z |]
W:Es steht ein Lind in jenem Tal, ach Gott, was tut sie da ?
W:Sie will mir helfen trauern, trau--------ern, 
W:daß ich mein Lieb verloren hab, daß ich mein Lieb verloren hab.


